public/logos/18_esp/MH.svg

<svg version="1.1" id="Layer_1" xmlns="http://www.w3.org/2000/svg" xmlns:xlink="http://www.w3.org/1999/xlink" x="0px" y="0px"
	 width="100%" viewBox="0 0 203 187" enable-background="new 0 0 203 187" xml:space="preserve">
<path fill="#2C2B2A" opacity="1.000000" stroke="none"
	d="
M105.000000,188.000000
	C103.933212,188.000000 102.866425,188.000000 101.288750,187.649704
	C96.755264,185.296707 92.714661,183.329254 88.713203,181.285156
	C71.344078,172.412445 56.429989,160.560547 43.887146,145.527985
	C32.724144,132.149139 24.796879,117.014854 19.107254,100.795746
	C14.109775,86.549698 9.714384,72.009918 6.333701,57.305439
	C3.645644,45.613567 2.891567,33.477058 1.278598,21.535913
	C8.887541,20.583788 14.365498,11.055392 15.415855,2.189873
	C72.493446,2.189873 129.586777,2.189873 185.722336,2.189873
	C187.625565,6.782018 188.525787,11.522283 191.227417,14.758926
	C193.994980,18.074593 198.526260,19.918098 203.718933,23.354546
	C201.870026,34.460449 200.384491,47.252636 197.520767,59.728470
	C192.540970,81.423065 185.110062,102.241135 174.171249,121.835823
	C166.584778,135.425461 157.584610,147.841949 147.160126,159.239792
	C135.407578,172.089722 121.107468,181.423431 105.000000,188.000000
M38.998192,98.970490
	C38.998192,98.970490 39.008209,98.865189 38.355293,99.448112
	C49.303173,130.959091 70.541145,152.854950 100.906975,166.104309
	C102.620468,166.851959 105.147202,166.814102 106.930008,166.154358
	C121.466217,160.775223 133.464844,151.755005 143.191315,139.767456
	C159.882202,119.196533 169.257874,95.096931 175.824905,69.846306
	C178.640610,59.019745 179.988113,47.811329 182.043579,36.552540
	C172.029648,34.998787 168.542664,29.269508 168.655426,21.031113
	C123.863670,21.031113 79.623520,21.031113 35.248451,21.031113
	C34.946102,27.036995 32.814274,32.209293 27.884361,35.170273
	C25.095057,36.845577 24.781176,38.518993 25.123880,41.075966
	C26.139627,48.654667 26.538307,56.382336 28.319704,63.776779
	C31.059439,75.149185 34.749290,86.292694 37.993305,97.488335
	C37.993305,97.488335 37.976814,97.428520 38.017960,98.259270
	C38.379765,98.500099 38.741566,98.740929 38.998192,98.970490
z"/>
<path fill="#F3B1B5" opacity="1.000000" stroke="none"
	d="
M38.036018,97.533325
	C34.749290,86.292694 31.059439,75.149185 28.319704,63.776779
	C26.538307,56.382336 26.139627,48.654667 25.123880,41.075966
	C24.781176,38.518993 25.095057,36.845577 27.884361,35.170273
	C32.814274,32.209293 34.946102,27.036995 35.248451,21.031113
	C79.623520,21.031113 123.863670,21.031113 168.655426,21.031113
	C168.542664,29.269508 172.029648,34.998787 182.043579,36.552540
	C179.988113,47.811329 178.640610,59.019745 175.824905,69.846306
	C169.257874,95.096931 159.882202,119.196533 143.191315,139.767456
	C133.464844,151.755005 121.466217,160.775223 106.930008,166.154358
	C105.147202,166.814102 102.620468,166.851959 100.906975,166.104309
	C70.541145,152.854950 49.303173,130.959091 39.072273,99.102898
	C40.555790,99.077217 41.312519,99.423149 42.090382,99.712219
	C50.106247,102.691139 52.731121,101.098389 53.317051,92.588211
	C53.801388,85.553635 54.011536,78.500183 54.343174,71.455093
	C58.597393,77.934898 61.707458,84.809189 65.346619,91.390938
	C66.919144,94.234970 69.584709,96.474632 71.753746,98.988838
	C74.051216,96.400200 76.898170,94.115608 78.533356,91.160500
	C82.089455,84.733902 85.027428,77.965263 88.218063,71.336433
	C89.304871,73.234871 89.503853,74.841637 89.585297,76.454338
	C89.904076,82.766045 89.962601,89.100517 90.551056,95.385963
	C91.030273,100.504601 93.530533,102.084328 98.361015,100.670052
	C100.640701,100.002602 102.746788,98.742195 104.858055,97.783813
	C99.987572,83.146858 99.020309,71.414261 101.103699,55.862217
	C101.221199,54.985081 100.764709,53.648952 100.101364,53.111340
	C95.805840,49.630016 89.708015,50.364601 86.445503,54.878857
	C84.610405,57.418045 83.162582,60.258755 81.722816,63.057518
	C78.706535,68.920853 75.810989,74.846306 72.398758,81.682022
	C70.871239,79.013031 69.773781,77.232407 68.807899,75.383072
	C65.424736,68.905380 62.327770,62.263912 58.657860,55.954689
	C55.563637,50.635178 49.359150,49.357136 44.394260,52.611935
	C43.602428,53.131031 42.884430,54.658585 43.029987,55.577770
	C45.321831,70.050453 43.584343,84.010490 38.036018,97.533325
M142.388184,79.002602
	C144.486252,79.002602 146.584335,79.002602 148.916977,79.002602
	C148.647293,83.305992 148.407349,86.932365 148.195129,90.560371
	C147.615784,100.464134 150.749985,102.911446 160.203796,99.918312
	C161.125595,99.626472 161.989899,99.153076 162.888458,98.760651
	C162.507172,96.925095 161.898087,95.332657 161.889618,93.737022
	C161.829681,82.458565 161.731522,71.176025 161.971939,59.901741
	C162.141617,51.944794 159.504150,49.593796 151.738831,51.609947
	C150.185120,52.013348 148.692383,52.651615 147.828583,52.952625
	C148.337967,58.930992 148.794067,64.284035 149.252380,69.663063
	C140.704941,69.663063 132.971497,69.663063 125.053246,69.663063
	C125.385315,66.010315 125.768822,62.710835 125.969109,59.400265
	C126.405060,52.194229 123.362480,49.704655 116.223953,51.445549
	C114.508392,51.863930 112.880287,52.640923 112.175430,52.899521
	C112.175430,65.919357 112.417564,78.167908 112.100060,90.401939
	C111.838394,100.484406 114.508133,102.864182 124.032944,99.903694
	C124.951904,99.618065 125.784149,99.053474 126.123520,98.884232
	C125.637222,92.090767 125.182144,85.733528 124.700325,79.002602
	C130.820694,79.002602 136.116379,79.002602 142.388184,79.002602
z"/>
<path fill="#040303" opacity="1.000000" stroke="none"
	d="
M38.014664,97.510834
	C43.584343,84.010490 45.321831,70.050453 43.029987,55.577770
	C42.884430,54.658585 43.602428,53.131031 44.394260,52.611935
	C49.359150,49.357136 55.563637,50.635178 58.657860,55.954689
	C62.327770,62.263912 65.424736,68.905380 68.807899,75.383072
	C69.773781,77.232407 70.871239,79.013031 72.398758,81.682022
	C75.810989,74.846306 78.706535,68.920853 81.722816,63.057518
	C83.162582,60.258755 84.610405,57.418045 86.445503,54.878857
	C89.708015,50.364601 95.805840,49.630016 100.101364,53.111340
	C100.764709,53.648952 101.221199,54.985081 101.103699,55.862217
	C99.020309,71.414261 99.987572,83.146858 104.858055,97.783813
	C102.746788,98.742195 100.640701,100.002602 98.361015,100.670052
	C93.530533,102.084328 91.030273,100.504601 90.551056,95.385963
	C89.962601,89.100517 89.904076,82.766045 89.585297,76.454338
	C89.503853,74.841637 89.304871,73.234871 88.218063,71.336433
	C85.027428,77.965263 82.089455,84.733902 78.533356,91.160500
	C76.898170,94.115608 74.051216,96.400200 71.753746,98.988838
	C69.584709,96.474632 66.919144,94.234970 65.346619,91.390938
	C61.707458,84.809189 58.597393,77.934898 54.343174,71.455093
	C54.011536,78.500183 53.801388,85.553635 53.317051,92.588211
	C52.731121,101.098389 50.106247,102.691139 42.090382,99.712219
	C41.312519,99.423149 40.555790,99.077217 39.398727,98.811432
	C39.008209,98.865189 38.998192,98.970490 39.050072,98.623642
	C38.726906,97.994034 38.351860,97.711281 37.976814,97.428520
	C37.976814,97.428520 37.993305,97.488335 38.014664,97.510834
z"/>
<path fill="#F3B1B5" opacity="1.000000" stroke="none"
	d="
M37.997387,97.843895
	C38.351860,97.711281 38.726906,97.994034 39.102661,98.629280
	C38.741566,98.740929 38.379765,98.500099 37.997387,97.843895
z"/>
<path fill="#030202" opacity="1.000000" stroke="none"
	d="
M141.900116,79.002602
	C136.116379,79.002602 130.820694,79.002602 124.700325,79.002602
	C125.182144,85.733528 125.637222,92.090767 126.123520,98.884232
	C125.784149,99.053474 124.951904,99.618065 124.032944,99.903694
	C114.508133,102.864182 111.838394,100.484406 112.100060,90.401939
	C112.417564,78.167908 112.175430,65.919357 112.175430,52.899521
	C112.880287,52.640923 114.508392,51.863930 116.223953,51.445549
	C123.362480,49.704655 126.405060,52.194229 125.969109,59.400265
	C125.768822,62.710835 125.385315,66.010315 125.053246,69.663063
	C132.971497,69.663063 140.704941,69.663063 149.252380,69.663063
	C148.794067,64.284035 148.337967,58.930992 147.828583,52.952625
	C148.692383,52.651615 150.185120,52.013348 151.738831,51.609947
	C159.504150,49.593796 162.141617,51.944794 161.971939,59.901741
	C161.731522,71.176025 161.829681,82.458565 161.889618,93.737022
	C161.898087,95.332657 162.507172,96.925095 162.888458,98.760651
	C161.989899,99.153076 161.125595,99.626472 160.203796,99.918312
	C150.749985,102.911446 147.615784,100.464134 148.195129,90.560371
	C148.407349,86.932365 148.647293,83.305992 148.916977,79.002602
	C146.584335,79.002602 144.486252,79.002602 141.900116,79.002602
z"/>
</svg>

<svg xmlns="http://www.w3.org/2000/svg" xml:space="preserve" viewBox="0 0 203 187"><path fill="#2c2b2a" d="M105 188c-1.067 0-2.134 0-3.711-.35-4.534-2.353-8.574-4.32-12.576-6.365-17.369-8.873-32.283-20.724-44.826-35.757-11.163-13.379-19.09-28.513-24.78-44.732C14.11 86.55 9.714 72.01 6.334 57.306c-2.688-11.692-3.442-23.829-5.055-35.77 7.609-.952 13.086-10.48 14.137-19.346h170.306c1.904 4.592 2.804 9.332 5.505 12.569 2.768 3.316 7.3 5.16 12.492 8.596-1.849 11.105-3.335 23.898-6.198 36.373-4.98 21.695-12.41 42.513-23.35 62.108-7.586 13.59-16.586 26.006-27.01 37.404C135.407 172.09 121.106 181.423 105 188M38.998 98.97s.01-.105-.643.478c10.948 31.511 32.186 53.407 62.552 66.656 1.713.748 4.24.71 6.023.05 14.536-5.379 26.535-14.399 36.261-26.387 16.691-20.57 26.067-44.67 32.634-69.92 2.816-10.827 4.163-22.036 6.219-33.294-10.014-1.554-13.501-7.283-13.389-15.522H35.248c-.302 6.006-2.434 11.178-7.364 14.14-2.789 1.675-3.103 3.348-2.76 5.905 1.016 7.579 1.414 15.306 3.196 22.7 2.74 11.373 6.43 22.517 9.673 33.712 0 0-.016-.06.025.771.362.241.724.482.98.711"/><path fill="#f3b1b5" d="M38.036 97.533c-3.287-11.24-6.977-22.384-9.716-33.756-1.782-7.395-2.18-15.122-3.196-22.701-.343-2.557-.029-4.23 2.76-5.906 4.93-2.96 7.062-8.133 7.364-14.139h133.407c-.112 8.239 3.375 13.968 13.389 15.522-2.056 11.258-3.403 22.467-6.22 33.293-6.566 25.25-15.942 49.35-32.633 69.921-9.726 11.988-21.725 21.008-36.261 26.387-1.783.66-4.31.698-6.023-.05-30.366-13.25-51.604-35.145-61.835-67.001 1.484-.026 2.24.32 3.018.61 8.016 2.978 10.641 1.385 11.227-7.125.484-7.034.695-14.088 1.026-21.133 4.254 6.48 7.364 13.354 11.004 19.936 1.572 2.844 4.238 5.084 6.407 7.598 2.297-2.589 5.144-4.873 6.78-7.829 3.555-6.426 6.493-13.195 9.684-19.824 1.087 1.899 1.286 3.506 1.367 5.118.32 6.312.378 12.647.966 18.932.48 5.119 2.98 6.698 7.81 5.284 2.28-.667 4.386-1.928 6.497-2.886-4.87-14.637-5.838-26.37-3.754-41.922.117-.877-.34-2.213-1.003-2.75-4.295-3.482-10.393-2.747-13.655 1.767-1.836 2.539-3.283 5.38-4.723 8.179-3.016 5.863-5.912 11.788-9.324 18.624-1.528-2.669-2.625-4.45-3.591-6.299-3.383-6.478-6.48-13.12-10.15-19.428-3.094-5.32-9.299-6.598-14.264-3.343-.792.519-1.51 2.047-1.364 2.966 2.292 14.472.554 28.432-4.994 41.955m104.352-18.53h6.529c-.27 4.303-.51 7.93-.722 11.557-.58 9.904 2.555 12.351 12.009 9.358.922-.292 1.786-.765 2.684-1.157-.38-1.836-.99-3.428-.998-5.024-.06-11.278-.158-22.561.082-33.835.17-7.957-2.468-10.308-10.233-8.292-1.554.403-3.047 1.042-3.91 1.343l1.423 16.71h-24.199c.332-3.653.716-6.952.916-10.263.436-7.206-2.607-9.695-9.745-7.954-1.716.418-3.344 1.195-4.049 1.454 0 13.02.243 25.268-.075 37.502-.262 10.082 2.408 12.462 11.933 9.502.919-.286 1.751-.85 2.09-1.02-.486-6.793-.94-13.15-1.423-19.881z"/><path fill="#040303" d="M38.015 97.51c5.57-13.5 7.307-27.46 5.015-41.932-.146-.92.572-2.447 1.364-2.966 4.965-3.255 11.17-1.977 14.264 3.343 3.67 6.309 6.767 12.95 10.15 19.428.966 1.85 2.063 3.63 3.59 6.299 3.413-6.836 6.309-12.761 9.325-18.624 1.44-2.8 2.887-5.64 4.723-8.18 3.262-4.513 9.36-5.248 13.655-1.767.664.538 1.12 1.874 1.003 2.751-2.084 15.552-1.116 27.285 3.754 41.922-2.111.958-4.217 2.219-6.497 2.886-4.83 1.414-7.33-.165-7.81-5.284-.588-6.285-.647-12.62-.966-18.932-.081-1.612-.28-3.22-1.367-5.118-3.19 6.63-6.129 13.398-9.685 19.825-1.635 2.955-4.482 5.24-6.78 7.828-2.168-2.514-4.834-4.754-6.406-7.598-3.64-6.582-6.75-13.456-11.004-19.936-.331 7.045-.542 14.099-1.026 21.133-.586 8.51-3.21 10.103-11.227 7.124-.777-.289-1.534-.635-2.691-.9-.39.053-.4.158-.349-.188-.323-.63-.698-.913-1.073-1.195 0 0 .016.06.038.082"/><path fill="#f3b1b5" d="M37.997 97.844c.355-.133.73.15 1.106.785-.361.112-.723-.129-1.106-.785"/><path fill="#030202" d="M141.9 79.003h-17.2l1.424 19.881c-.34.17-1.172.734-2.091 1.02-9.525 2.96-12.195.58-11.933-9.502.318-12.234.075-24.483.075-37.502.705-.26 2.333-1.036 4.049-1.454 7.138-1.741 10.181.748 9.745 7.954-.2 3.31-.584 6.61-.916 10.263h24.2l-1.424-16.71c.863-.301 2.356-.94 3.91-1.343 7.765-2.016 10.403.335 10.233 8.292-.24 11.274-.142 22.557-.082 33.835.008 1.596.617 3.188.998 5.024-.898.392-1.762.865-2.684 1.157-9.454 2.993-12.588.546-12.009-9.358.212-3.628.452-7.254.722-11.557z"/></svg>
